resources/icons/20px/rect-width.svg

<svg width="20" height="20" viewBox="0 0 20 20" fill="none" xmlns="http://www.w3.org/2000/svg">
<path d="M18 16V4H2V16H18ZM1 18C0.734784 18 0.48043 17.8946 0.292893 17.7071C0.105357 17.5196 0 17.2652 0 17V3C0 2.73478 0.105357 2.48043 0.292893 2.29289C0.48043 2.10536 0.734784 2 1 2H19C19.2652 2 19.5196 2.10536 19.7071 2.29289C19.8946 2.48043 20 2.73478 20 3V17C20 17.2652 19.8946 17.5196 19.7071 17.7071C19.5196 17.8946 19.2652 18 19 18H1ZM7.295 6.293C7.38652 6.1951 7.49681 6.11662 7.6193 6.06222C7.74178 6.00783 7.87396 5.97864 8.00796 5.97638C8.14196 5.97413 8.27504 5.99886 8.39928 6.0491C8.52353 6.09935 8.63639 6.17408 8.73116 6.26884C8.82592 6.36361 8.90065 6.47647 8.9509 6.60072C9.00114 6.72496 9.02587 6.85804 9.02362 6.99204C9.02136 7.12604 8.99217 7.25822 8.93778 7.3807C8.88338 7.50319 8.8049 7.61348 8.707 7.705L6.413 10L8.707 12.295C8.8049 12.3865 8.88338 12.4968 8.93778 12.6193C8.99217 12.7418 9.02136 12.874 9.02362 13.008C9.02587 13.142 9.00114 13.275 8.9509 13.3993C8.90065 13.5235 8.82592 13.6364 8.73116 13.7312C8.63639 13.8259 8.52353 13.9007 8.39928 13.9509C8.27504 14.0011 8.14196 14.0259 8.00796 14.0236C7.87396 14.0214 7.74178 13.9922 7.6193 13.9378C7.49681 13.8834 7.38652 13.8049 7.295 13.707L4.332 10.745C4.22742 10.6511 4.1438 10.5363 4.08659 10.4079C4.02939 10.2795 3.99988 10.1405 4 10C3.99988 9.85946 4.02939 9.72048 4.08659 9.59211C4.1438 9.46375 4.22742 9.34888 4.332 9.255L7.295 6.293ZM11.293 6.293C11.4804 6.10614 11.7343 6.00121 11.999 6.00121C12.2637 6.00121 12.5176 6.10614 12.705 6.293L15.668 9.255L15.708 9.293C15.8952 9.48066 16.0002 9.73495 16 10C16.0001 10.1405 15.9706 10.2795 15.9134 10.4079C15.8562 10.5363 15.7726 10.6511 15.668 10.745L12.705 13.707C12.5157 13.884 12.2651 13.9805 12.006 13.9761C11.7469 13.9717 11.4996 13.8669 11.3164 13.6836C11.1331 13.5004 11.0283 13.2531 11.0239 12.994C11.0195 12.7349 11.116 12.4843 11.293 12.295L13.587 10L11.293 7.705C11.1061 7.51755 11.0012 7.26367 11.0012 6.999C11.0012 6.73433 11.1061 6.48045 11.293 6.293Z" fill="black"/>
</svg>

<svg xmlns="http://www.w3.org/2000/svg" viewBox="0 0 20 20">
  <path d="M18 16V4H2v12zM1 18a1 1 0 0 1-1-1V3a1 1 0 0 1 1-1h18a1 1 0 0 1 1 1v14a1 1 0 0 1-1 1zM7.295 6.293a.999.999 0 1 1 1.412 1.412L6.413 10l2.294 2.295a.999.999 0 1 1-1.412 1.412l-2.963-2.962a1 1 0 0 1 0-1.49zm3.998 0a1 1 0 0 1 1.412 0l2.963 2.962.04.038a1 1 0 0 1-.04 1.452l-2.963 2.962a.999.999 0 0 1-1.412-1.412L13.587 10l-2.294-2.295a1 1 0 0 1 0-1.412"/>
</svg>
